!!!SOCIAL_FUNCTION:	songs of principal social dances with corn dance
!!!PDT:	1956
!!!OTL: No_64_Alligator_Dance_Song_(a).krn
!!!LANG: Non-Tone
!!!LING_GROUP: Muskogean
!!!REG: Florida
**kern
*staff1
=1-
*clefF4
*k[f#]
*M2/4
8B\L
8B\J
8B\L
8c\J
=2||
*M3/4
2B\
8A\L
8G\J
=3
4B\
8A\L
8A\J
8G\L
8G\J
=4||
*M2/4
4G\
4r
=5
8E\L
8E\J
8E\L
8A\J
=6
8A\L
16G\L
16G\JJ
4G\
=7||
*M3/4
4B\
8A\L
8A\J
8G\L
8G\J
=8||
*M2/4
4G\
4r
=9
8E\L
8E\J
8E\L
8A\J
=10||
*M3/4
8A\L
16G\L
16G\JJ
2G\
=11:|!
*M2/4
8A\L
16G\L
16G\JJ
4G\
=12||
4B\
4r
=13||
*M3/4
(4.B\
8G\)
4B\
=14
2B\
4B\
=15||
*M2/4
8B\
8r
(8B\L
8A\J)
=16||
*M3/4
2B\
4B\
=17||
*M2/4
8B\
8r
(8B\L
8A\J)
=18
2B\
=19
4B\
4B\
=20
4B\
4r
=21
4B\
4r
*-
